img/why/box.svg

<svg width="31" height="30" viewBox="0 0 31 30" fill="none" xmlns="http://www.w3.org/2000/svg">
<path fill-rule="evenodd" clip-rule="evenodd" d="M5.49931 7.7781C4.72619 8.22479 4.25 9.04988 4.25 9.94276V20.0571C4.25 20.95 4.72619 21.7751 5.49931 22.2217L14.2493 27.2773C15.0232 27.7244 15.9768 27.7244 16.7507 27.2773L25.5007 22.2217C26.2738 21.7751 26.75 20.95 26.75 20.0571V9.94276C26.75 9.04988 26.2738 8.22479 25.5007 7.7781L16.7507 2.72254C15.9768 2.27543 15.0232 2.27543 14.2493 2.72254L5.49931 7.7781ZM15.8127 4.34604L23.9391 9.04129L20.6564 10.9379L12.22 6.06048L15.1873 4.34604C15.3808 4.23426 15.6192 4.23426 15.8127 4.34604ZM10.3464 7.14304L18.7827 12.0205L15.5 13.9172L7.06094 9.04129L10.3464 7.14304ZM6.125 10.666L14.5625 15.541V25.2928L6.43733 20.5982C6.24405 20.4866 6.125 20.2803 6.125 20.0571V10.666ZM24.5627 20.5982L16.4375 25.2928V15.541L24.875 10.666V20.0571C24.875 20.2803 24.756 20.4866 24.5627 20.5982Z" fill="#2A179C"/>
</svg>

<svg width="31" height="30" fill="none" xmlns="http://www.w3.org/2000/svg"><path fill-rule="evenodd" clip-rule="evenodd" d="M5.5 7.778a2.5 2.5 0 0 0-1.25 2.165v10.114a2.5 2.5 0 0 0 1.25 2.165l8.75 5.055a2.5 2.5 0 0 0 2.5 0l8.75-5.055a2.5 2.5 0 0 0 1.25-2.165V9.943a2.5 2.5 0 0 0-1.25-2.165l-8.75-5.055a2.5 2.5 0 0 0-2.5 0L5.5 7.778Zm10.313-3.432 8.126 4.695-3.283 1.897L12.22 6.06l2.967-1.714a.625.625 0 0 1 .626 0Zm-5.467 2.797 8.437 4.878-3.283 1.896-8.44-4.876 3.286-1.898Zm-4.221 3.523 8.438 4.875v9.752l-8.126-4.695a.625.625 0 0 1-.312-.54v-9.392Zm18.438 9.932-8.125 4.695V15.54l8.437-4.875v9.391c0 .223-.119.43-.312.541Z" fill="#2A179C"/></svg>
